X: 2026
T: Yürük Değirmenler Gibi
C: Dede Efendi
O: Turkey
F: http://compmusic.upf.edu/node/140
N: sehnaz--ilahi--evsat--yuruk_degirmenler--dede_efendi
N: makam= sehnaz
N: form= ilahi
N: usul= evsat = 26/8
M: 26/8
L: 1/16
K: C _7/8B ^1/4f ^c ^g
Q: 1/4=120
%%MIDI tuningsystem comma53
A2 a2 a6 =ba ga b2 =c'2 ba ag a4  | \
w:  Yü *  rük  de *  *  *  *  *  ğir  | 
=b2 =c'2 b2 a3/2g/ f2 a4 ga ba a6 z2  | 
w:  men *  *  *  *  *  ler   | 
ga =b=c' ba g4 a3/2g/ fg f2 ga gf fe f3e  | \
w:  gi *  *  *  *  *  *  bi  *  *  *  *  *  *  dö  | 
=ba ag gf gf fe e6 a2 a=g2^f f3/2e/ d2  | 
w:  ner *  *  *  *  *  *  *  *  *  ler  e fen *  *  dim    | 
ed cd e6 ef ef e=g fe e6 g2  | =gf fe d2 fe fg fe2f ed2e dc2d cB A2  | 
w:  El  *  *  *  e le  *  *  *  *  *  *  *  ver  |  miş *  *  *  *  *  *  *  *  ler   | 
cd ef ed c4 d3/2c/ Bc Be dc cB BA B3A  | 
w:  Hak *  *  *  *  *  *  ka  *  *  *  *  *  *  *  gi  | 
ed dc cB cB BA A6 d2 d3/2c/ Bc d4  | \
w:  der *  *  *  *  *  *  *  *  *  ler   SAZ  | 
A2 d2 d6 ed cd e2 f2 ed dc d4  | 
w:  Gö *  nül  kâ *  *  *  *  *  be  | 
ed dc B2 =g2 fe ed cd cd ed d4 d2 z2  | \
w:  si *  *  *  *  *  *  *  ni   | 
ed cd e2 ^f4 =g3/2f/ ^ef ef ga ag ^1/4f=e d4  | 
w:  ta *  *  *  *  *  vâf  *  *  *  *  *  *  *  e  | 
e2 fe d2 =c'2 =ba ba ga ga ba a3=g ^f3/2e/ d2  | \
w:  der *  *  *  *  *  *  ler  *  *  *  *  *  *  *  *  e fen *  dim    | 
ed cd e6 ef ef e=g fe e6 g2  | 
w:  El  *  *  *  e le  *  *  *  *  *  *  *  ver  | 
=gf fe d2 fe fg fe2f ed2e dc2d cB A2  | 
w:  miş *  *  *  *  *  *  *  *  ler   | 
cd ef ed c4 d3/2c/ Bc Be dc cB BA B3A  | 
w:  Hak *  *  *  *  *  *  ka  *  *  *  *  *  *  *  gi  | 
ed dc cB cB BA A6 a2 ga =ba a4  | \
w:  der *  *  *  *  *  *  *  *  *  ler   SAZ  | 
A2 a2 a6 =ba ga b2 =c'2 ba ag a4  | 
w:  Yü *  rük  de *  *  *  *  *  ğir  | 
=b2 =c'2 b2 a3/2g/ f2 a4 ga ba a6 z2  | \
w:  men *  *  *  *  *  ler   | 
ga =b=c' ba g4 a3/2g/ fg f2 ga gf fe f3e  | 
w:  gi *  *  *  *  *  *  bi  *  *  *  *  *  *  dö  | 
=ba ag gf gf fe e6 a2 a=g2^f f3/2e/ d2  | \
w:  ner *  *  *  *  *  *  *  *  *  ler  e fen *  *  dim    | 
ed cd e6 ef ef e=g fe e6 g2  | 
w:  El  *  *  *  e le  *  *  *  *  *  *  *  ver  | 
=gf fe d2 fe fg fe2f ed2e dc2d cB A2  | 
w:  miş *  *  *  *  *  *  *  *  ler   | 
cd ef ed c4 d3/2c/ Bc Be dc cB BA B3A  | 
w:  Hak *  *  *  *  *  *  ka  *  *  *  *  *  *  *  gi  | 
ed dc cB cB BA A8 z8  | |


